assets/icons/qvision/remove_done.svg

<svg xmlns="http://www.w3.org/2000/svg" height="24" viewBox="0 0 24 24" width="24"><path d="M0 0h24v24H0zm0 0h24v24H0V0z" fill="none"/><path d="M1.79 12l5.58 5.59L5.96 19 .37 13.41 1.79 12zm.45-7.78L12.9 14.89l-1.28 1.28L7.44 12l-1.41 1.41L11.62 19l2.69-2.69 4.89 4.89 1.41-1.41L3.65 2.81 2.24 4.22zm14.9 9.27L23.62 7 22.2 5.59l-6.48 6.48 1.42 1.42zM17.96 7l-1.41-1.41-3.65 3.66 1.41 1.41L17.96 7z"/></svg>

<svg width="24" height="24" viewBox="0 0 24 24" fill="none" xmlns="http://www.w3.org/2000/svg">
<g clip-path="url(#clip0_147_4624)">
<path d="M1.79 12L7.37 17.59L5.96 19L0.370003 13.41L1.79 12ZM2.24 4.22L12.9 14.89L11.62 16.17L7.44 12L6.03 13.41L11.62 19L14.31 16.31L19.2 21.2L20.61 19.79L3.65 2.81L2.24 4.22ZM17.14 13.49L23.62 7L22.2 5.59L15.72 12.07L17.14 13.49ZM17.96 7L16.55 5.59L12.9 9.25L14.31 10.66L17.96 7Z" fill="#323232"/>
</g>
<defs>
<clipPath id="clip0_147_4624">
<rect width="24" height="24" fill="white"/>
</clipPath>
</defs>
</svg>
